src/assets/icons/tx.svg

<svg xmlns="http://www.w3.org/2000/svg" width="100%" height="100%" viewBox="0 0 24 24"><path fill="none" d="M0 0h24v24H0V0zm0 0h24v24H0V0z"/><path d="M17 16l-4-4V8.82C14.16 8.4 15 7.3 15 6c0-1.66-1.34-3-3-3S9 4.34 9 6c0 1.3.84 2.4 2 2.82V12l-4 4H3v5h5v-3.05l4-4.2 4 4.2V21h5v-5h-4z"/></svg>

<?xml version="1.0" encoding="UTF-8" standalone="no"?>
<!DOCTYPE svg PUBLIC "-//W3C//DTD SVG 1.1//EN" "http://www.w3.org/Graphics/SVG/1.1/DTD/svg11.dtd">
<svg width="100%" height="100%" viewBox="0 0 24 24" version="1.1" xmlns="http://www.w3.org/2000/svg" xmlns:xlink="http://www.w3.org/1999/xlink" xml:space="preserve" xmlns:serif="http://www.serif.com/" style="fill-rule:evenodd;clip-rule:evenodd;stroke-linejoin:round;stroke-miterlimit:1.41421;">
    <path d="M0,0L24,0L24,24L0,24L0,0ZM0,0L24,0L24,24L0,24L0,0Z" style="fill:none;"/>
    <g transform="matrix(1.03641,0,0,1.03641,-0.436961,-0.725142)">
        <path d="M17,16L13,12L11,12L7,16L3,16L3,21L8,21L8,17.95L12,13.75L16,17.95L16,21L21,21L21,16L17,16Z" style="fill-rule:nonzero;"/>
    </g>
    <g transform="matrix(-1.03641,1.26924e-16,-1.26924e-16,-1.03641,24.437,24.7251)">
        <path d="M17,16L13,12L11,12L7,16L3,16L3,21L8,21L8,17.95L12,13.75L16,17.95L16,21L21,21L21,16L17,16Z" style="fill-rule:nonzero;"/>
    </g>
</svg>
